!!!!SEGMENT: pl-wn--sd-xvi-o-233_anonim--kancjonal-zamoyskich-piesn-nowa-o-ukorzeniu-krzescijanskim-boze-ojcze-prosim-ciebie.krn
!!!cenid: 15xx:791
!!!COM: Anonim
!!!COM-rismid: pe30004985
!!!CDT:
!!!CNT:
!!!GTL: Kancjonał Zamoyskich
!!!OTL: Pieśń nowa o ukorzeniu krześcijańskim/Boże Ojcze prosim ciebie
!!!PDT: 1558
!!!AGN:
!!!SMS-siglum: PL-Wn
!!!SMS-shelfmark: SD XVI.O.233
!!!SMS-shelfwork: G
!!!SMS-variant:
!!!SMS-altvar:
!!!NIFC-rismid: 990072133
!!!URL-scan: https://polona.pl/item/piesn-nowa-o-vkorzeniu-krzescijanskim-panu-bogu-oycu-naszemu-ku-pociesze-synow-iego-z,MTE3MDIxMg/3/#info:metadata
!!!ONB-nifc: UWAGA: proszę zapisywać tylko teksty występujące bezpośrednio pod nutami
!!!key: G:mix
**kern	**text	**kern	**text	**kern	**text
*part3	*part3	*part2	*part2	*part1	*part1
*staff3	*staff3	*staff2	*staff2	*staff1	*staff1
*I"BASSVS.	*	*I"TENOR.	*	*I"DISCANTVS.	*
*I'B	*	*I'T	*	*I'S	*
*Ibass	*	*Itenor	*	*Isoprn	*
*ICvox	*	*ICvox	*	*ICvox	*
*clefF4	*	*clefC4	*	*clefC1	*
*k[]	*	*k[]	*	*k[]	*
*G:mix	*	*G:mix	*	*G:mix	*
*M2/1	*	*M2/1	*	*M2/1	*
*met(C|)	*	*met(C|)	*	*met(C|)	*
=1-	=1-	=1-	=1-	=1-	=1-
1G	Bo-	1G	Bo-	1g	Bo-
2C/	-ǯe	2A/	-ǯe	2f/	-ǯe
2G\	Oy-	2B/	Oy-	2g/	Oy-
=2-	=2-	=2-	=2-	=2-	=2-
2E\	-cǯe	2G/	-ce	2e/	-ce
2C/	pro-	2c\	pro-	2a\	pro-
2D\	-śim	2c\	-śim	2a\	-śim
2E\	ćie-	2B/	ćie-	2g/	ćie-
=3-	=3-	=3-	=3-	=3-	=3-
1AA	-bie/	1A	-bie/	1a	-bie/
2r	.	2r	.	2r	.
2F\	kto-	2A/	kto-	2a\	kto-
=4-	=4-	=4-	=4-	=4-	=4-
2G\	-ry	2B/	-ry	2g\	-ry
2A\	ie-	2c\	ie/-	2a\	ie-
*custos:D	*	*custos:d	*	*custos:b	*
!LO:LB:g=original	!	!LO:LB:g=original	!	!LO:LB:g=original	!
4D\	-ſteś	1d	-ſteś	1b	-ſteś
4E\	.	.	.	.	.
4F\	.	.	.	.	.
4D\	.	.	.	.	.
=5-	=5-	=5-	=5-	=5-	=5-
2A\	w_ſwo-	2c\	w_ſwo-	2a\	w_ſwo-
2G\	-im	2B\	-im	1g	-im
1D	nie-	1A	nie-	.	.
.	.	.	.	2f/	nie-
=6-	=6-	=6-	=6-	=6-	=6-
1GG	-b:	1G	-b:	1g	-b:
1C	rácǯ	1c	rácǯ	1a	rácǯ
=7-	=7-	=7-	=7-	=7-	=7-
1G	láſ-	1d	láſ-	1b	łáſ-
2C/	-kaw	2e\	-kaw	2g/	-kaw
2C/	być	2e\	być	2cc\	być
=8-	=8-	=8-	=8-	=8-	=8-
2G\	ná	2d\	ná	2b\	ná
*custos:A	*	*	*	*	*
!LO:LB:g=original	!	!	!	!	!
2A\	ſwe	2c\	ſwe	1a	ſwe
1E	ſy-	1B	ſy-	.	.
.	.	.	.	2g/	ſy-
=9-	=9-	=9-	=9-	=9-	=9-
1F	-ny/	1A	-ny/	1a	-ny/
2r	.	2r	.	2r	.
*	*	*custos:d	*	*custos:b	*
!	!	!LO:LB:g=original	!	!LO:LB:g=original	!
2D/	á	2d\	á	2b\	á
=10-	=10-	=10-	=10-	=10-	=10-
2A\	od-	2c\	od-	2a\	od-
2D/	-puś-	2d\	-pu-	2b\	-puś-
1G	-ćić	1B	-ſćić	1g	-ćić
=11-	=11-	=11-	=11-	=11-	=11-
2C/	ná-	2c\	ná-	2a\	ná-
2E\	-ſʒe	2B\	-ſʒe	1g	-ſʒe
1D	wi-	1A	wi-	.	.
.	.	.	.	2f/	wi-
=12-	=12-	=12-	=12-	=12-	=12-
0GGl	-ny.	0Gl	-ny.	0gl/	-ny.
==	==	==	==	==	==
*-	*-	*-	*-	*-	*-
!!!system-decoration: [(*)]
!!!RDF**kern: l = terminal long
!!!ENC: Berenika Jozajtis
!!!END: 2022-04-19
!!!AIN: 1 bass 1 soprn 1 tenor
!!!ENC: Andrzej Kubiczek
!!!END: 2022-05-04
